X:1
Q:1/4=110
L:1/8
M:1/4
K:C clef=G2
V:1
%%MIDI program 52
z2|z2|z2|z2|
z2|z2|z2|z2|
z2|z2|z2|z2|
z2|z2|z2|z2|
Az/2B31/64|^c2-|^c31/16|Bz/2^c31/64|
dz/2^c31/64|e2-|e31/32d31/32|^c31/16|
dz/2^c31/64|Bz/2E31/64|B2-|B31/32d31/32|
^cz/2B31/64|^c2-|^c31/16|z2|
Az/2B31/64|^c2-|^c31/32^c31/32|Bz/2^c31/64|
dz/2^c31/64|e2-|e31/32d31/32|^c31/16|
^cz/2^c31/64|B2-|B31/16|zz/2B31/64|
^cz/2^d31/64|e2-|e2-|e2-|
ez/2^c31/64|^c2-|^c31/32^c31/32|B2-|
B31/32d31/32|^c2-|^c31/16|A31/16|
zz/2d31/64|d2-|d31/32d31/32|^c2-|
^c31/32e31/32|d2-|d31/16|B31/16|
Az/2B31/64|^cz/2B31/64|A31/32B31/32|^c31/16|
^cz/2d31/64|ez/2d31/64|^c31/32d31/32|e31/16|
ez/2e31/64|^f2-|^f31/16|B2-|
B31/32^c31/32|d2-|d31/16|z2|
dz/2d31/64|^c31/16|Bz/2A31/64|e2-|
e31/16|A2-|A31/16|z2|
z2|z2|z2|z2|
z2|z2|z2|z2|
z2|z2|z2|z2|
z2|z2|z2|zz31/32
L:1/8
M:1/4
K:C clef=G2
V:2
%%MIDI program 0
[Aa]z/2[Bb]15/32|[^c-^c'-]2|[^c^c']7/8z/8[^c^c']15/16|[Bb]31/32[^c^c']31/32|
[dd']31/32[^c^c']15/16|[e-e'-]2|[ee']31/32[dd']31/32|[^c^c']15/8|
[dd']z/2[^c^c']15/32|[Bb]15/16^G31/64B31/64|e31/64^g31/64b31/64e'15/32|^g'15/16B31/64e31/64|
^g31/64b31/64e'31/64^g'15/32|[aa']15/8|[^CEA]z/2[^CEA]15/32|[^CEA]15/8|
z2|[A,^C]31/32z|[A,^C]31/32z|[B,D]31/32z|
[B,D]31/32z|[^G,E]15/8|[^G,E]15/8|[A,^C]15/8|
z2|[^G,D]15/8|[^G,D]15/8|[^G,D]15/8|
[^G,D]15/8|[A,^C]15/8|[^CEA]z/2[^CEA]31/64|[^CEA]31/16|
z2|[A,^C]15/8|[A,^C]15/8|[B,D]15/8|
[B,D]15/8|[^G,E]15/8|[^G,E]15/8|[A,^C]15/8|
[^CEA]15/8|[E^G]15/8|[E^G]15/8|[E^G]15/8|
[^D^FA]15/8|[E^G]15/16[^Ge]15/32E15/32|[^Ge]31/32[E^Ge]31/32|[E^Ge]31/16|
z2|[^CEA]15/8|[^CEA]15/8|[B,E^G]15/8|
[B,E^G]15/8|[^CEA]15/8|[^CEA]15/8|[^CE]15/8|
z2|[B,^G]15/8|[B,^G]15/8|[^A,G]15/8|
[^A,G]15/8|[B,^G]15/8|[B,E^G]15/8|[B,E^G]15/8|
z2|[^CEA]15/8|[^CEA]15/8|[^CEA]15/8|
z2|[E^c]15/8|[E^c]15/8|[E^c]15/8|
[EG^c]15/8|[^F-d-]2|[^Fd]7/4z7/32|[^G-B-]2|
[^GB]7/8z/8[^GA^c]15/16|[D-A-d-]2|[DAd]7/4z7/32|z2|
[^FBd]15/8|[EA^c]15/8|[D^GB]z/2[^CA]15/32|[B,-E-^G-]2|
[B,E^G]31/16|[^CEA]15/8|[^CEA]z/2[^CEA]15/32|[^CEA]15/8|
[Aa]z/2[Bb]31/64|[^c^c']z/2[Bb]31/64|[Aa]z/2[Bb]31/64|[^c^c']15/8|
[a^c']z/2[bd']31/64|[^c'e']z/2[bd']31/64|[a^c']z/2[bd']31/64|[^c'e']15/8|
[^c'e']z/2[^c'e']15/32|[d'^f']31/16|b31/64d'31/64^f'31/64b'15/32|^g'31/32B31/64e31/64|
^g31/64b31/64e'31/64^g'15/32|[aa']31/16|[^cea]z/2[^cea]31/64|[^cea]31/16
L:1/8
M:1/4
K:C clef=F4
V:3
%%MIDI program 0
z2|[A,,A,]15/8|[A,^CE]15/8|[E,,E,]15/8|
[^G,B,E]15/8|[E,,E,]15/8|[^G,B,E]15/8|[A,,A,]15/8|
z2|[E,^G,B,]15/8|[E,^G,B,]15/8|[E,^G,B,D]15/8|
[E,^G,B,D]15/8|[A,^C]15/8|[A,,A,]z/2[A,,A,]15/32|[A,,A,]15/8|
z2|[A,,E,]31/32z|[A,,E,]31/32z|[^G,,E,]31/32z|
[^G,,E,]31/32z|[E,,E,]15/8|[E,,E,]15/8|[A,,E,]15/8|
z2|[E,,B,,E,]15/8|[E,,B,,E,]15/8|[E,,B,,E,]15/8|
[E,,B,,E,]15/8|[A,,E,]15/8|[A,,A,]z/2[A,,A,]31/64|[A,,A,]31/16|
z2|[A,,E,]15/8|[A,,E,]15/8|[^G,,E,]15/8|
[^G,,E,]15/8|[E,,E,]15/8|[E,,E,]15/8|[A,,E,]15/8|
[A,,A,]15/8|[B,,B,]15/8|[B,,B,]15/8|[B,,B,]15/8|
[B,,B,]15/8|[E,B,]15/16z|[E,^G,B,]31/32[E,^G,B,]31/32|[E,^G,B,]31/16|
z2|[A,,A,]15/8|[A,,A,]15/8|[E,,E,]15/8|
[E,,E,]15/8|[A,,,-A,,-]2|[A,,,A,,]7/4z7/32|[A,,A,]15/8|
z2|[E,,E,]15/8|[E,,E,]15/8|[E,,E,]15/8|
[E,,E,]15/8|[E,,E,]15/8|[E,,E,]15/8|[E,,E,]15/8|
z2|[A,,E,A,]15/8|[A,,E,A,]15/8|[A,,E,A,]15/8|
z2|[A,,E,A,]15/8|[A,,E,A,]15/8|[A,,E,A,]15/8|
[A,,E,A,]15/8|[D,,-D,-]2|[D,,D,]7/4z7/32|[E,,-E,-]2|
[E,,E,]7/8z/8[E,,E,]15/16|[^F,,-^F,-]2|[^F,,^F,]7/4z7/32|z2|
[B,,,B,,]15/8|[E,,E,]15/8|[E,,E,]15/8|[E,,E,]15/8|
E,,15/8|[A,,A,]15/8|[A,,A,]z/2[A,,A,]15/32|[A,,A,]15/8|
z2|[A,,E,A,]15/8|[A,,E,A,]15/8|[A,,E,A,]15/8|
z2|[A,,E,A,]15/8|[A,,E,A,]15/8|[A,,E,A,]15/8|
z2|[D,,D,]31/16|[^F,B,D]15/8|[E,,E,]31/16|
[E,^G,B,D]15/8|[A,^C]31/16|[A,,A,]z/2[A,,A,]31/64|[A,,A,]31/16


